img/svg/location2.svg

<?xml version="1.0" encoding="utf-8"?><!DOCTYPE svg PUBLIC "-//W3C//DTD SVG 1.1//EN" "http://www.w3.org/Graphics/SVG/1.1/DTD/svg11.dtd"><svg version="1.1" baseProfile="full" xmlns="http://www.w3.org/2000/svg" xmlns:xlink="http://www.w3.org/1999/xlink" xmlns:ev="http://www.w3.org/2001/xml-events"   height="17px"   width="13px" ><path fill="rgb( 255, 102, 0 )" d="M11.6319999999999,10.186 C11.6319999999999,10.186 6.577,17 6.577,17 C6.577,17 1.41200000000003,10.238 1.41200000000003,10.238 C0.54100000000005,9.15899999999999 0,7.81700000000001 0,6.33800000000002 C0,2.83699999999999 2.90999999999997,0 6.5,0 C10.09,0 13,2.83699999999999 13,6.33800000000002 C13,7.79300000000001 12.477,9.11599999999999 11.6319999999999,10.186 ZM6.5,1.75900000000001 C3.88900000000001,1.75900000000001 1.77300000000002,3.79300000000001 1.77300000000002,6.30200000000002 C1.77300000000002,8.81099999999998 3.88900000000001,10.845 6.5,10.845 C9.11099999999999,10.845 11.227,8.81099999999998 11.227,6.30200000000002 C11.227,3.79300000000001 9.11099999999999,1.75900000000001 6.5,1.75900000000001 Z "/></svg>

<svg baseProfile="full" xmlns="http://www.w3.org/2000/svg" height="17" width="13"><path fill="rgb( 255, 102, 0 )" d="M11.632 10.186l-5.055 6.814-5.165-6.762c-.871-1.079-1.412-2.421-1.412-3.9 0-3.501 2.91-6.338 6.5-6.338s6.5 2.837 6.5 6.338c0 1.455-.523 2.778-1.368 3.848zm-5.132-8.427c-2.611 0-4.727 2.034-4.727 4.543 0 2.509 2.116 4.543 4.727 4.543s4.727-2.034 4.727-4.543c0-2.509-2.116-4.543-4.727-4.543z"/></svg>
